X:1
T:Friesen, 77.77 D
T:William James Kirkpatrick, 1899
T:Friesen, 77.77 D
T:Public Domain
C:William James Kirkpatrick, 1899
Z:Public Domain
%%score 1 ( 2 3 )
L:1/8
M:3/4
K:C
V:1 treble 
V:2 bass 
V:3 bass 
V:1
 [EG]>[EG] | [EG]3 [CE] [B,F]>[CG] | [CA]4 [CD]>[CD] | [B,D]3 [B,D] [B,E]>[B,F] | [CE]4 [EG]>[EG] | %5
 [EG]3 [EG] [EA]>[E_B] | [FA]4 [FA]>[FA] | [^FA]3 [FA] [FB]>[Fc] | [FB]4 [FA]>[FG] | %9
 [Ee]3 [Gd] [Gc]>[FA] | [EG]4 [EG]>[Ec] | [Ge]3 [Gd] [Gc]>[Ge] | [Gd]4 [EG]>[FA] | %13
 [EG]2 [CE]2 [Ec]>[FA] | [EG]4 [Gc][Ad] | [Ge]3 [Fd] [Ec][DB] | [Ec]4 |] %17
V:2
 [C,C]>[C,C] | [C,C]3 [C,G,] [D,G,]>[E,G,] | F,4 [^F,A,]>[F,A,] | G,3 G, [G,,G,]>[G,,G,] | %4
 [C,G,]4 [C,C]>[C,C] | [C,C]3 [C,C] [C,C]>[C,C] | [F,C]4 [F,C]>[F,C] | [D,D]3 [D,D] [D,D]>[D,D] | %8
 [G,D]4 [G,C]>[G,B,] | [C,C]3 [D,B,] [E,C]>[F,C] | [C,C]4 [C,C]>[C,C] | [C,C]3 [D,B,] [E,C]>[C,C] | %12
 [G,,B,]4 [C,C]>[C,C] | [C,C]2 [C,G,]2 [C,G,]>[C,C] | [C,C]4 [E,C][F,C] | [G,C]3 G, G,G, | %16
 [C,G,]4 |] %17
V:3
 x2 | x6 | ^F,4 x2 | G,3 G, x2 | x6 | x6 | x6 | x6 | x6 | x6 | x6 | x6 | x6 | x6 | x6 | %15
 x3 G, G,G, | x4 |] %17

